X: 1
T: She Was a Sweet Little Dicky Bird
C: T.W. Connor
S: http://lesters-tune-a-day.blogspot.co.uk/2017/03/tune-469-she-was-sweet-little-dicky-bird.html
M: 3/4
L: 1/4
K: G
[|\
d ^c e | d B G | E2 E | D3 |\
d z d | d z G | F3 | -F3 |
e3 | A2 e | d2 B | A2 G |\
E2 B | B A E | A3 | -A2 D ||
G3 | A3 | F3 | -F2 D |\
G A B | c2 e | A3 | -A3 |
d2 c | B A G | e2 d | c B A |\
d2 d | c B A | G3 | -G3 |]
